public/img/events/jester.svg

<svg width="200" height="200" viewBox="0 0 200 200" fill="none" xmlns="http://www.w3.org/2000/svg">
<g clip-path="url(#clip0_501_28478)">
<path d="M49.4164 76.2638C43.8238 78.0426 38.4987 80.6393 33.6402 83.9326C28.7629 87.2414 24.343 91.222 20.514 95.7001C18.5668 97.9765 16.7628 100.38 15.1204 102.884C13.3568 105.571 11.8389 108.366 10.461 111.271C8.93682 114.48 7.54955 117.755 6.41734 121.123C5.26958 124.538 4.5915 128.073 3.96629 131.612C3.63969 133.453 3.26644 135.288 3.06115 137.148C2.85275 139.032 2.72522 140.926 2.64746 142.82C2.49815 146.577 2.55725 150.34 2.58525 154.099C2.59147 155.051 2.59769 156.006 2.59769 156.957C2.6319 156.827 2.66923 156.696 2.70344 156.566C1.78897 158.606 0.519895 160.555 0.127976 162.788C-0.260832 165.012 0.27728 167.338 1.18865 169.375C2.00359 171.191 3.33176 172.793 5.06429 173.797C6.89635 174.861 9.23854 175.125 11.3257 174.951C13.5341 174.767 15.6212 173.962 17.2729 172.466C19.0769 170.83 20.3056 168.386 20.5824 165.976C21.0521 161.905 18.9619 157.331 15.2013 155.502C13.1328 154.494 10.5885 154.295 8.33339 154.616C5.91967 154.958 3.82322 156.161 2.35196 158.105C2.09691 158.441 2.29908 158.976 2.6319 159.168C3.03004 159.402 3.44062 159.224 3.69568 158.889C5.03941 157.113 7.15452 156.202 9.34118 156.062C11.5341 155.919 13.898 156.264 15.6865 157.617C17.4315 158.932 18.4891 160.972 18.8997 163.087C19.4004 165.649 18.7535 168.091 17.2262 170.193C15.8452 172.096 13.6461 173.203 11.3226 173.399C9.1079 173.582 6.70973 173.275 4.93987 171.841C3.23222 170.457 2.27109 168.411 1.7983 166.302C1.52146 165.071 1.44682 163.858 1.75164 162.623C2.04402 161.435 2.58214 160.335 3.12958 159.246C3.37531 158.755 3.62725 158.263 3.86054 157.763C4.01917 157.424 4.14048 157.15 4.15292 156.768C4.16847 156.323 4.14981 155.875 4.14981 155.43C4.14048 153.854 4.12493 152.277 4.11248 150.7C4.09071 147.572 4.10004 144.44 4.27423 141.315C4.36132 139.732 4.49507 138.149 4.6817 136.576C4.86211 135.052 5.19804 133.537 5.46554 132.026C5.9881 129.084 6.53554 126.139 7.37537 123.269C8.19031 120.479 9.25098 117.752 10.4174 115.093C11.5621 112.481 12.7689 109.865 14.1873 107.39C16.6508 103.086 19.5591 99.0401 22.8873 95.3612C29.3788 88.1899 37.4536 82.4119 46.5051 78.9351C47.603 78.5122 48.7104 78.1266 49.8301 77.7689C50.7819 77.4611 50.3745 75.959 49.4164 76.2638Z" fill="black"/>
<path d="M18.5046 157.589C18.5855 155.458 19.5591 153.508 20.6446 151.72C21.6618 150.044 22.7877 148.427 24.0039 146.888C26.4861 143.747 29.3166 140.889 32.3711 138.305C38.8782 132.794 46.3837 128.593 54.1101 125.051C58.6763 122.958 63.3389 121.089 68.0202 119.272C68.4121 119.12 68.6827 118.75 68.5645 118.315C68.4618 117.941 68.0015 117.618 67.6065 117.77C59.0216 121.104 50.4522 124.618 42.4988 129.299C35.4162 133.469 28.7878 138.609 23.5529 144.984C22.091 146.763 20.7348 148.629 19.5186 150.582C18.1936 152.715 17.0458 155.032 16.9494 157.585C16.9121 158.59 18.4673 158.587 18.5046 157.589Z" fill="black"/>
<path d="M57.9984 122.441C57.7651 124.233 57.958 126.027 58.1446 127.812C58.3219 129.523 58.4339 131.224 58.269 132.94C57.958 136.171 56.8289 139.294 55.4727 142.223C54.6733 143.946 53.7868 145.625 52.8848 147.295C52.4089 148.175 53.7495 148.962 54.2285 148.079C55.8615 145.062 57.4479 141.99 58.5521 138.734C59.0964 137.126 59.5008 135.481 59.7278 133.799C59.9611 132.051 59.9487 130.316 59.7807 128.562C59.5847 126.528 59.2924 124.488 59.5599 122.445C59.6159 122.028 59.1648 121.667 58.7822 121.667C58.3095 121.664 58.0513 122.022 57.9984 122.441Z" fill="black"/>
<path d="M53.8269 148.617C58.6606 149.252 63.373 150.577 68.2066 151.217C70.6266 151.538 73.0745 151.681 75.51 151.488C78.1197 151.283 80.6267 150.549 83.1711 149.973C85.9985 149.332 88.8601 148.797 91.7684 148.81C92.77 148.816 92.77 147.261 91.7684 147.255C89.1836 147.242 86.6175 147.647 84.0949 148.178C82.8009 148.452 81.5163 148.76 80.2317 149.065C78.9782 149.364 77.734 149.693 76.4525 149.843C71.5908 150.399 66.7696 149.522 62.0199 148.549C59.2982 147.992 56.5828 147.423 53.8269 147.062C53.4101 147.006 53.0493 147.46 53.0493 147.839C53.0493 148.306 53.4101 148.561 53.8269 148.617Z" fill="black"/>
<path d="M103.872 67.8362C112.839 62.5588 123.16 59.816 133.555 59.732C144.04 59.648 154.482 62.1888 163.913 66.7229C168.725 69.0366 173.291 71.8603 177.555 75.0696C179.733 76.7085 181.826 78.4593 183.839 80.2972C184.806 81.1804 185.717 82.1071 186.644 83.0276C187.546 83.9202 188.514 84.6945 189.742 85.077C190.846 85.4222 192.013 85.5031 193.098 85.9229C194.019 86.2774 194.878 86.8341 195.605 87.4996C197.102 88.8679 198.15 90.7524 198.417 92.7738C198.955 96.8166 196.025 100.542 192.196 101.603C188.203 102.707 184.007 100.231 182.554 96.4341C181.82 94.5215 181.839 92.4193 182.678 90.541C183.512 88.6813 184.98 87.1575 186.797 86.2401C187.891 85.6896 189.095 85.4035 190.318 85.4004C191.319 85.3973 191.319 83.8424 190.318 83.8455C185.434 83.8642 181.129 87.7888 180.523 92.6028C179.954 97.1431 183.148 101.599 187.412 102.999C191.73 104.417 196.576 102.175 198.803 98.3248C201.114 94.3256 199.935 89.1882 196.501 86.2183C195.646 85.4782 194.688 84.8904 193.637 84.4706C192.464 84.0041 191.195 83.9326 190.004 83.5283C188.8 83.1209 187.919 82.1165 187.061 81.2302C186.081 80.2226 185.039 79.2741 183.988 78.3411C179.695 74.5316 175.039 71.1139 170.075 68.2311C160.457 62.6428 149.642 59.0945 138.525 58.3264C127.592 57.5707 116.494 59.6449 106.674 64.5398C105.455 65.1462 104.26 65.7993 103.085 66.4896C102.226 67.0028 103.007 68.3462 103.872 67.8362Z" fill="black"/>
<path d="M181.393 93.9896C179.891 92.7768 178.096 92.1019 176.221 91.7008C174.242 91.2778 172.208 91.0477 170.189 90.914C166.018 90.6372 161.832 90.8953 157.704 91.5297C149.486 92.7923 141.617 95.6347 134.074 99.0679C129.819 101.002 125.657 103.136 121.52 105.309C120.633 105.776 121.417 107.116 122.304 106.653C129.473 102.884 136.743 99.2296 144.401 96.5427C151.996 93.8776 160.003 92.1735 168.081 92.3756C170.323 92.4316 172.569 92.6244 174.78 93.0069C176.709 93.3396 178.737 93.8372 180.292 95.0905C180.619 95.3548 181.073 95.4108 181.393 95.0905C181.667 94.8168 181.723 94.257 181.393 93.9896Z" fill="black"/>
<path d="M86.1512 46.173C81.2397 38.98 74.3936 33.2922 66.4495 29.7221C58.4089 26.1085 49.5472 24.6033 40.757 25.0885C36.1255 25.3435 31.5189 26.1209 27.0492 27.3524C24.7754 27.9775 22.5328 28.7239 20.3337 29.5759C19.3228 29.9678 18.371 30.4343 17.2605 30.2508C16.2465 30.0828 15.276 29.7905 14.234 29.8372C10.6414 29.9989 7.21993 32.7822 6.70049 36.4082C6.18104 40.0467 8.46412 43.8282 11.9541 45.0224C15.3196 46.173 19.2761 44.5342 21.1113 41.5612C22.9993 38.5011 22.1875 34.3526 19.6525 31.9114C19.0273 31.3112 18.3025 30.8137 17.5094 30.4716C17.1237 30.3068 16.6758 30.3565 16.4456 30.7515C16.2527 31.078 16.3367 31.6471 16.7255 31.815C19.5405 33.0247 21.2295 36.3616 20.4052 39.3408C19.6058 42.2329 16.4331 44.1672 13.4969 43.7971C10.3833 43.4053 8.08464 40.3079 8.18107 37.2541C8.2806 34.0914 11.2511 31.476 14.346 31.3921C15.2823 31.3672 16.1439 31.6502 17.0615 31.787C18.1999 31.955 19.161 31.7093 20.2155 31.2926C22.2746 30.4778 24.371 29.7532 26.4955 29.1343C30.6791 27.9153 34.9809 27.0912 39.3262 26.746C47.6311 26.0867 56.0325 27.1938 63.79 30.2757C71.3484 33.2797 78.0577 38.1995 83.0905 44.5995C83.6939 45.3676 84.2662 46.1606 84.8168 46.9661C85.0532 47.3112 85.5011 47.4667 85.8806 47.2459C86.2165 47.0376 86.3876 46.5213 86.1512 46.173Z" fill="black"/>
<path d="M21.2699 41.9747C22.8002 41.5487 24.3866 41.8037 25.9014 42.1737C27.3446 42.5252 28.7661 42.973 30.1565 43.4985C32.9341 44.5465 35.5842 45.9273 38.0913 47.5164C43.3542 50.8532 47.9235 55.1417 52.1071 59.7318C54.5457 62.4093 56.8599 65.1988 59.1429 68.0101C59.4073 68.3366 59.9672 68.2869 60.244 68.0101C60.5675 67.6867 60.5084 67.2389 60.244 66.9092C56.104 61.8123 51.8489 56.7712 46.9623 52.3677C42.3464 48.2068 37.1613 44.6336 31.3758 42.3106C29.7739 41.6668 28.1285 41.1257 26.4519 40.7059C24.623 40.2488 22.7038 39.9596 20.8562 40.4727C19.8919 40.7432 20.3025 42.2453 21.2699 41.9747Z" fill="black"/>
<path d="M121.25 106.28C120.783 112.907 120.447 120.221 124.727 125.788C125.763 127.134 127.023 128.291 128.497 129.143C128.444 128.736 128.391 128.328 128.338 127.921C124.534 131.911 120.233 135.397 115.545 138.295C110.879 141.181 105.859 143.486 100.621 145.124C97.6599 146.051 94.6334 146.763 91.5665 147.258C91.1528 147.326 90.9195 147.842 91.0222 148.216C91.1435 148.657 91.5634 148.825 91.9802 148.76C97.5137 147.867 102.904 146.247 108.036 143.996C113.187 141.738 118.03 138.821 122.457 135.357C124.932 133.419 127.268 131.298 129.436 129.022C129.779 128.661 129.723 128.055 129.278 127.8C126.883 126.419 125.175 124.152 124.096 121.639C122.833 118.697 122.503 115.454 122.516 112.282C122.522 110.279 122.662 108.279 122.802 106.28C122.83 105.86 122.422 105.502 122.024 105.502C121.583 105.502 121.281 105.86 121.25 106.28Z" fill="black"/>
<path d="M5.55245 167.683C6.55402 167.683 6.55402 166.128 5.55245 166.128C4.55088 166.128 4.55088 167.683 5.55245 167.683Z" fill="black"/>
<path d="M9.90743 165.195C10.909 165.195 10.909 163.64 9.90743 163.64C8.90586 163.64 8.90586 165.195 9.90743 165.195Z" fill="black"/>
<path d="M13.6398 168.927C14.6414 168.927 14.6414 167.372 13.6398 167.372C12.6383 167.372 12.6383 168.927 13.6398 168.927Z" fill="black"/>
<path d="M189.655 98.269C190.657 98.269 190.657 96.7138 189.655 96.7138C188.657 96.7138 188.654 98.269 189.655 98.269Z" fill="black"/>
<path d="M191.418 93.8625C192.42 93.8625 192.42 92.3073 191.418 92.3073C190.42 92.3073 190.417 93.8625 191.418 93.8625Z" fill="black"/>
<path d="M196.125 96.5057C197.126 96.5057 197.126 94.9505 196.125 94.9505C195.123 94.9505 195.12 96.5057 196.125 96.5057Z" fill="black"/>
<path d="M11.4626 38.9369C12.4642 38.9369 12.4642 37.3817 11.4626 37.3817C10.461 37.3817 10.461 38.9369 11.4626 38.9369Z" fill="black"/>
<path d="M13.9509 37.3818C14.9525 37.3818 14.9525 35.8266 13.9509 35.8266C12.9493 35.8266 12.9493 37.3818 13.9509 37.3818Z" fill="black"/>
<path d="M14.573 40.1808C15.5745 40.1808 15.5745 38.6255 14.573 38.6255C13.5714 38.6255 13.5714 40.1808 14.573 40.1808Z" fill="black"/>
<path d="M58.7355 135.44C63.6501 136.641 68.7077 137.179 73.7622 137.253C78.8603 137.328 83.9583 136.945 89.0191 136.358C93.9056 135.792 98.7859 135.08 103.641 134.287C107.445 133.668 111.265 132.89 114.855 131.454C118.376 130.042 121.617 127.989 123.922 124.929C124.208 124.55 124.472 124.158 124.724 123.757C125.256 122.905 123.909 122.124 123.38 122.973C121.474 126.033 118.525 128.154 115.271 129.603C111.831 131.136 108.089 131.951 104.394 132.592C99.8093 133.388 95.1902 134.044 90.5743 134.616C85.6318 135.229 80.6643 135.67 75.6814 135.708C70.7419 135.742 65.7932 135.375 60.9533 134.355C60.3499 134.227 59.7496 134.091 59.1492 133.945C58.1757 133.702 57.762 135.201 58.7355 135.44Z" fill="black"/>
<path d="M54.8566 147.472C59.1086 144.524 63.1927 141.337 67.087 137.931C67.4043 137.655 67.37 137.114 67.087 136.831C66.7728 136.516 66.3032 136.554 65.9859 136.831C62.1911 140.152 58.2128 143.255 54.0728 146.129C53.7275 146.368 53.5689 146.81 53.7929 147.192C53.9919 147.535 54.5083 147.712 54.8566 147.472Z" fill="black"/>
<path d="M67.3948 137.686C72.44 141.312 77.6283 144.733 82.9472 147.942C83.8056 148.461 84.5895 147.115 83.731 146.598C78.4121 143.389 73.2238 139.968 68.1787 136.342C67.8365 136.097 67.3139 136.283 67.1149 136.622C66.8878 137.014 67.0527 137.44 67.3948 137.686Z" fill="black"/>
<path d="M84.2474 147.662C86.2194 144.596 88.3812 141.657 90.7358 138.874C91.0157 138.541 91.2988 138.214 91.5819 137.888C91.868 137.558 92.1511 137.138 92.5057 136.877C93.0064 136.51 93.7996 137.337 94.176 137.614C95.4793 138.575 96.935 139.3 98.4467 139.875C101.523 141.041 104.811 141.498 108.058 141.921C108.972 142.039 109.834 142.052 110.422 141.222C110.652 140.898 110.786 140.509 110.932 140.142C111.119 139.679 111.299 139.216 111.473 138.749C112.142 136.98 112.739 135.182 113.259 133.363C113.433 132.754 113.542 131.749 114.291 131.59C115.097 131.423 116.071 131.858 116.833 132.066C118.96 132.654 121.091 133.239 123.218 133.826C124.186 134.094 124.596 132.592 123.632 132.328C121.701 131.796 119.769 131.264 117.84 130.732C116.304 130.309 114.067 129.339 112.745 130.735C112.173 131.342 111.987 132.172 111.763 132.949C111.489 133.907 111.193 134.859 110.876 135.804C110.577 136.703 110.257 137.592 109.921 138.479C109.763 138.899 109.598 139.315 109.433 139.732C109.333 139.981 109.237 140.385 108.96 140.457C108.633 140.541 108.136 140.379 107.803 140.335C107.402 140.282 106.997 140.226 106.596 140.17C105.781 140.055 104.963 139.928 104.154 139.779C102.503 139.48 100.863 139.094 99.2834 138.532C97.7468 137.984 96.2787 137.244 94.966 136.274C94.2942 135.779 93.6099 135.22 92.7296 135.226C91.7374 135.232 91.1277 136.059 90.5367 136.734C87.7529 139.925 85.2023 143.318 82.9099 146.878C82.3624 147.721 83.7062 148.502 84.2474 147.662Z" fill="black"/>
</g>
<defs>
<clipPath id="clip0_501_28478">
<rect width="200" height="200" fill="white"/>
</clipPath>
</defs>
</svg>

<svg xmlns="http://www.w3.org/2000/svg" width="200" height="200" fill="none"><g fill="#000" clip-path="url(#a)"><path d="M49.416 76.264a61.3 61.3 0 0 0-15.776 7.669A66.3 66.3 0 0 0 20.514 95.7a71 71 0 0 0-5.394 7.184c-1.763 2.687-3.281 5.482-4.659 8.387-1.524 3.209-2.911 6.484-4.044 9.852-1.147 3.415-1.825 6.95-2.45 10.489-.327 1.841-.7 3.676-.906 5.536a82 82 0 0 0-.414 5.672c-.149 3.757-.09 7.52-.062 11.279q.011 1.43.013 2.858l.105-.391c-.914 2.04-2.183 3.989-2.575 6.222-.389 2.224.15 4.55 1.06 6.587.816 1.816 2.144 3.418 3.876 4.422 1.832 1.064 4.175 1.328 6.262 1.154 2.208-.184 4.295-.989 5.947-2.485 1.804-1.636 3.033-4.08 3.31-6.49.47-4.071-1.621-8.645-5.382-10.474-2.068-1.008-4.613-1.207-6.868-.886-2.413.342-4.51 1.545-5.981 3.489-.255.336-.053.871.28 1.063.398.234.809.056 1.064-.279 1.343-1.776 3.459-2.687 5.645-2.827 2.193-.143 4.557.202 6.346 1.555 1.745 1.315 2.802 3.355 3.213 5.47.5 2.562-.146 5.004-1.674 7.106-1.38 1.903-3.58 3.01-5.903 3.206-2.215.183-4.613-.124-6.383-1.558-1.708-1.384-2.669-3.43-3.142-5.539-.277-1.231-.351-2.444-.046-3.679.292-1.188.83-2.288 1.378-3.377.245-.491.497-.983.73-1.483.16-.339.28-.613.293-.995.015-.445-.003-.893-.003-1.338q-.017-2.364-.038-4.73c-.021-3.128-.012-6.26.162-9.385a75 75 0 0 1 .408-4.739c.18-1.524.516-3.039.784-4.55.522-2.942 1.07-5.887 1.91-8.757.814-2.79 1.875-5.517 3.041-8.176 1.145-2.612 2.352-5.228 3.77-7.703a69 69 0 0 1 8.7-12.029c6.492-7.171 14.567-12.95 23.618-16.426a60 60 0 0 1 3.325-1.166c.952-.308.544-1.81-.414-1.505"/><path d="M18.505 157.589c.08-2.131 1.054-4.081 2.14-5.869a48 48 0 0 1 3.359-4.832c2.482-3.141 5.313-5.999 8.367-8.583 6.507-5.511 14.013-9.712 21.74-13.254 4.565-2.093 9.228-3.962 13.91-5.779.391-.152.662-.522.543-.957-.102-.374-.562-.697-.957-.545-8.585 3.334-17.155 6.848-25.108 11.529-7.083 4.17-13.711 9.31-18.946 15.685a53 53 0 0 0-4.034 5.598c-1.325 2.133-2.473 4.45-2.57 7.003-.037 1.005 1.518 1.002 1.556.004"/><path d="M57.998 122.441c-.233 1.792-.04 3.586.147 5.371.177 1.711.289 3.412.124 5.128-.311 3.231-1.44 6.354-2.796 9.283-.8 1.723-1.686 3.402-2.588 5.072-.476.88.864 1.667 1.343.784 1.633-3.017 3.22-6.089 4.324-9.345a26.4 26.4 0 0 0 1.176-4.935c.233-1.748.22-3.483.053-5.237-.196-2.034-.489-4.074-.221-6.117.056-.417-.395-.778-.778-.778-.472-.003-.73.355-.784.774"/><path d="M53.827 148.617c4.834.635 9.546 1.96 14.38 2.6 2.42.321 4.868.464 7.303.271 2.61-.205 5.117-.939 7.661-1.515 2.828-.641 5.69-1.176 8.597-1.163 1.002.006 1.002-1.549 0-1.555-2.584-.013-5.15.392-7.673.923-1.294.274-2.579.582-3.863.887-1.254.299-2.498.628-3.78.778-4.861.556-9.682-.321-14.432-1.294-2.722-.557-5.437-1.126-8.193-1.487-.417-.056-.778.398-.778.777 0 .467.361.722.778.778M103.872 67.836c8.967-5.277 19.288-8.02 29.683-8.104 10.485-.084 20.927 2.457 30.358 6.99 4.812 2.315 9.378 5.138 13.642 8.348a86 86 0 0 1 6.284 5.227c.967.883 1.878 1.81 2.805 2.73.902.893 1.87 1.668 3.098 2.05 1.104.345 2.271.426 3.356.846.921.354 1.78.911 2.507 1.577 1.497 1.368 2.545 3.252 2.812 5.274.538 4.043-2.392 7.768-6.221 8.829-3.993 1.104-8.189-1.372-9.642-5.169-.734-1.912-.715-4.015.124-5.893a8.94 8.94 0 0 1 4.119-4.3 7.9 7.9 0 0 1 3.521-.84c1.001-.004 1.001-1.559 0-1.555-4.884.018-9.189 3.943-9.795 8.757-.569 4.54 2.625 8.996 6.889 10.396 4.318 1.418 9.164-.824 11.391-4.674 2.311-4 1.132-9.137-2.302-12.107a10 10 0 0 0-2.864-1.747c-1.173-.467-2.442-.538-3.633-.943-1.204-.407-2.085-1.412-2.943-2.298-.98-1.007-2.022-1.956-3.073-2.889-4.293-3.81-8.949-7.227-13.913-10.11-9.618-5.588-20.433-9.136-31.55-9.905-10.933-.755-22.031 1.319-31.851 6.214a59 59 0 0 0-3.589 1.95c-.859.513-.078 1.856.787 1.346"/><path d="M181.393 93.99c-1.502-1.213-3.297-1.888-5.172-2.29-1.979-.422-4.013-.652-6.032-.786-4.171-.277-8.357-.019-12.485.616-8.218 1.262-16.087 4.105-23.63 7.538-4.255 1.934-8.417 4.068-12.554 6.241-.887.467-.103 1.807.784 1.344 7.169-3.769 14.439-7.423 22.097-10.11 7.595-2.665 15.602-4.37 23.68-4.167 2.242.056 4.488.248 6.699.63 1.929.334 3.957.831 5.512 2.085.327.264.781.32 1.101 0 .274-.274.33-.834 0-1.101M86.151 46.173c-4.911-7.193-11.757-12.88-19.701-16.45-8.041-3.614-16.903-5.12-25.693-4.634a65.2 65.2 0 0 0-13.708 2.263 70 70 0 0 0-6.715 2.224c-1.011.392-1.963.858-3.073.675-1.014-.168-1.985-.46-3.027-.414C10.641 30 7.22 32.782 6.7 36.408c-.519 3.639 1.764 7.42 5.254 8.614 3.366 1.151 7.322-.488 9.157-3.46 1.888-3.06 1.076-7.21-1.459-9.65a7.3 7.3 0 0 0-2.143-1.44c-.385-.165-.833-.116-1.063.28-.193.326-.11.895.28 1.063 2.815 1.21 4.504 4.547 3.68 7.526-.8 2.892-3.973 4.826-6.91 4.456-3.113-.392-5.411-3.49-5.315-6.543.1-3.163 3.07-5.778 6.165-5.862.936-.025 1.798.258 2.715.395 1.139.168 2.1-.078 3.154-.494a71 71 0 0 1 6.28-2.159c4.184-1.219 8.486-2.043 12.831-2.388 8.305-.66 16.707.448 24.464 3.53C71.348 33.28 78.058 38.2 83.09 44.6a44 44 0 0 1 1.727 2.366c.236.345.684.5 1.064.28.335-.208.507-.725.27-1.073"/><path d="M21.27 41.975c1.53-.426 3.117-.171 4.631.199 1.444.351 2.865.799 4.256 1.325 2.777 1.047 5.427 2.428 7.934 4.017 5.263 3.337 9.832 7.626 14.016 12.216 2.439 2.677 4.753 5.467 7.036 8.278.264.327.824.277 1.101 0 .324-.323.264-.771 0-1.1-4.14-5.098-8.395-10.139-13.282-14.542-4.616-4.161-9.8-7.734-15.586-10.057a38 38 0 0 0-4.924-1.605c-1.829-.457-3.748-.746-5.596-.233-.964.27-.554 1.772.414 1.502M121.25 106.28c-.467 6.627-.803 13.941 3.477 19.508 1.036 1.346 2.296 2.503 3.77 3.355l-.159-1.222a64.6 64.6 0 0 1-12.793 10.374 65.7 65.7 0 0 1-14.924 6.829 65 65 0 0 1-9.054 2.134c-.414.068-.647.584-.545.958.121.441.541.609.958.544 5.534-.893 10.924-2.513 16.056-4.764a67.2 67.2 0 0 0 14.421-8.639 65 65 0 0 0 6.979-6.335c.343-.361.287-.967-.158-1.222-2.395-1.381-4.103-3.648-5.182-6.161-1.263-2.942-1.593-6.185-1.58-9.357.006-2.003.146-4.003.286-6.002.028-.42-.38-.778-.778-.778-.441 0-.743.358-.774.778M5.552 167.683c1.002 0 1.002-1.555 0-1.555-1.001 0-1.001 1.555 0 1.555M9.907 165.195c1.002 0 1.002-1.555 0-1.555-1.001 0-1.001 1.555 0 1.555M13.64 168.927c1.001 0 1.001-1.555 0-1.555-1.002 0-1.002 1.555 0 1.555M189.655 98.269c1.002 0 1.002-1.555 0-1.555-.998 0-1.001 1.555 0 1.555M191.418 93.863c1.002 0 1.002-1.556 0-1.556-.998 0-1.001 1.555 0 1.555M196.125 96.506c1.001 0 1.001-1.555 0-1.555-1.002 0-1.005 1.555 0 1.555M11.463 38.937c1.001 0 1.001-1.555 0-1.555-1.002 0-1.002 1.555 0 1.555M13.95 37.382c1.003 0 1.003-1.555 0-1.555-1 0-1 1.555 0 1.555M14.573 40.18c1.002 0 1.002-1.554 0-1.554s-1.002 1.555 0 1.555"/><path d="M58.736 135.44c4.914 1.201 9.972 1.739 15.026 1.813 5.098.075 10.196-.308 15.257-.895 4.887-.566 9.767-1.278 14.622-2.071 3.804-.619 7.624-1.397 11.214-2.833 3.521-1.412 6.762-3.465 9.067-6.525.286-.379.55-.771.802-1.172.532-.852-.815-1.633-1.344-.784-1.906 3.06-4.855 5.181-8.109 6.63-3.44 1.533-7.182 2.348-10.877 2.989-4.585.796-9.204 1.452-13.82 2.024-4.942.613-9.91 1.054-14.893 1.092-4.94.034-9.888-.333-14.728-1.353a63 63 0 0 1-1.804-.41c-.973-.243-1.387 1.256-.413 1.495"/><path d="M54.857 147.472a138 138 0 0 0 12.23-9.541c.317-.276.283-.817 0-1.1-.314-.315-.784-.277-1.101 0a135 135 0 0 1-11.913 9.298c-.346.239-.504.681-.28 1.063.199.343.715.52 1.064.28"/><path d="M67.395 137.686a232 232 0 0 0 15.552 10.256c.859.519 1.642-.827.784-1.344a232 232 0 0 1-15.552-10.256c-.343-.245-.865-.059-1.064.28-.227.392-.062.818.28 1.064"/><path d="M84.247 147.662a84 84 0 0 1 7.335-9.774c.286-.33.57-.75.924-1.011.5-.367 1.294.46 1.67.737 1.303.961 2.759 1.686 4.27 2.261 3.077 1.166 6.365 1.623 9.612 2.046.914.118 1.776.131 2.364-.699.23-.324.364-.713.51-1.08q.28-.693.541-1.393a68 68 0 0 0 1.786-5.386c.174-.609.283-1.614 1.032-1.773.806-.167 1.78.268 2.542.476q3.192.88 6.385 1.76c.968.268 1.378-1.234.414-1.498l-5.792-1.596c-1.536-.423-3.773-1.393-5.095.003-.572.607-.758 1.437-.982 2.214q-.411 1.437-.887 2.855a69 69 0 0 1-.955 2.675q-.239.629-.488 1.253c-.1.249-.196.653-.473.725-.327.084-.824-.078-1.157-.122-.401-.053-.806-.109-1.207-.165a59 59 0 0 1-2.442-.391c-1.651-.299-3.291-.685-4.87-1.247-1.537-.548-3.005-1.288-4.318-2.258-.672-.495-1.356-1.054-2.236-1.048-.993.006-1.602.833-2.193 1.508a87.5 87.5 0 0 0-7.627 10.144c-.548.843.796 1.624 1.337.784"/></g><defs><clipPath id="a"><path fill="#fff" d="M0 0h200v200H0z"/></clipPath></defs></svg>
